X: 1067
T: Minuet
%R: minuet, waltz
B: Henry Playford "Apollo's Banquet", London 1687 (5th Edition)
F: https://archive.org/details/apollosbanquetco01rugg
Z: 2017 John Chambers <jc:trillian.mit.edu>
M: 3/4
L: 1/8
K: F
% - - - - - - - - - -
|:\
f2f2c2 | d2(_ed)(cB) | A3GA2 | B2G2c2 |\
F2f2c2 | d2(_ed)(cB) | A3A=B2 | c6 ::\
c2d2e2 |
f2(gf)(ed) | e3fg2 | d2e2=B2 |\
c3de2 | (fe)d3c | c2G2A2 | B3cA2 |\
B2G3F | F6 |]
% - - - - - - - - - -

%%sep 1 1 500
%%sep 1 1 500

